X:1
T:Galopp fra Nord-Østerdal
R:Galopp
Z:Ulf Bjørkelo 2012-03-22
O:Østerdalen
S:Atle Lien Jenssen
M:2/4
L:1/8 
Q:1/4=140
K:G
B|dd/d/ dd|dd/d/ dd|ed BG|D2> G2|F>G AB|
|1.3cB ce|ed ^cd|B2>:|2.4c2B AG|FD EF|G2>||
|:B2|dd/d/ dB|gg/g/ gf|e>f ec|A2> G2|F>G AB|
|1.3cd ef|ag/g/ gB|d2>:|2.4c2B AG|FD EF|G4|]

